X: 305681
M: 2/4
L: 1/16
K: C
cBcd c2G2 | cBcd c2G2 | E2G2E2G2 | cBcd c2c2 |\
cBcd c2_B2 | A2A2 f4 | B2g2 BcdB | c6 H|]
d2 |\
d^cde d2d2 | d2g2 d4 | dcBA G2^F2 | G^FGA G2G2 |\
d^cde d2d2 | d2g2 d4 | cBAG G2^F2 | G2=F2E2"^D.C."D2 |]


